logos/loom-icon.svg

<?xml version="1.0" encoding="UTF-8"?>
<svg width="256px" height="256px" viewBox="0 0 256 256" version="1.1" xmlns="http://www.w3.org/2000/svg" preserveAspectRatio="xMidYMid">
    <title>Loom</title>
    <g>
        <path d="M256,113.765147 L181.141896,113.765147 L245.972565,76.3351495 L231.735417,51.6684962 L166.904748,89.0983584 L204.326373,24.2728197 L179.659451,10.0271381 L142.237824,74.8525689 L142.237824,0 L113.761906,0 L113.761906,74.8597245 L76.3259685,10.0271381 L51.667011,24.265664 L89.0957931,89.0912028 L24.264989,51.6684962 L10.0268681,76.3279937 L74.8576993,113.757991 L0,113.757991 L0,142.235124 L74.8505437,142.235124 L10.0268681,179.664852 L24.264989,204.331774 L89.0886375,166.908798 L51.6598553,231.734067 L76.3259685,245.972565 L113.754751,181.140546 L113.754751,256 L142.231073,256 L142.231073,181.147296 L179.6527,245.972565 L204.318272,231.734067 L166.889896,166.902047 L231.720565,204.331774 L245.959064,179.664852 L181.135145,142.241874 L255.985148,142.241874 L255.985148,113.765147 L256,113.765147 Z M128,166.72923 C106.528301,166.72923 89.1244159,149.32602 89.1244159,127.853241 C89.1244159,106.380866 106.528301,88.9765765 128,88.9765765 C149.471835,88.9765765 166.875045,106.380866 166.875045,127.853241 C166.875045,149.32602 149.471835,166.72923 128,166.72923 Z" fill="#625DF5"></path>
    </g>
</svg>

<svg preserveAspectRatio="xMidYMid" viewBox="0 0 256 256" xmlns="http://www.w3.org/2000/svg">
  <path fill="#625DF5" d="M256 113.765h-74.858l64.83-37.43-14.237-24.667-64.83 37.43 37.421-64.825-24.667-14.246-37.421 64.826V0h-28.476v74.86L76.326 10.027 51.667 24.266 89.096 89.09 24.265 51.668l-14.238 24.66 64.83 37.43H0v28.477h74.85l-64.823 37.43 14.238 24.667 64.824-37.423-37.43 64.825 24.667 14.239 37.429-64.832V256h28.476v-74.853l37.422 64.826 24.665-14.239-37.428-64.832 64.83 37.43 14.24-24.667-64.825-37.423h74.85v-28.477H256ZM128 166.73c-21.472 0-38.876-17.403-38.876-38.876 0-21.472 17.404-38.876 38.876-38.876 21.472 0 38.875 17.404 38.875 38.876 0 21.473-17.403 38.876-38.875 38.876Z"/>
</svg>
